Yaru++/mimetypes/16/application-apk.svg

<svg height="16" width="16" xmlns="http://www.w3.org/2000/svg">
  <path d="m12.706668 5.0466681 1.733331-1.7333389c.266659-.2668478.266659-.6800083 0-.9466671-.266659-.2664698-.679997-.2664698-.946667 0l-1.973332 1.9733507c-1.05333-.5333554-2.2533329-.8400035-3.519998-.8400035-1.2800001 0-2.4800024.3065348-3.5466678.8400035l-1.9866666-1.9733507c-.2666588-.2664698-.6800008-.2664698-.9466671 0-.2666584.2668478-.2666584.6800083 0 .9466671l1.7466661 1.7466813c-1.9733315 1.4533377-3.26666648 3.786668-3.26666648 6.4399895h15.99999988c0-2.6533215-1.293331-4.9999942-3.293332-6.4533319zm-7.563812 3.5961704h-1.1428569v-1.1428339h1.1428569zm6.857145 0h-1.142857v-1.1428339h1.142857z" fill="#808080"/>
</svg>

<svg xmlns="http://www.w3.org/2000/svg" width="16" height="16" version="1.1">
 <path style="fill:#808080" d="m 12.706668,5.0466681 1.733331,-1.7333389 c 0.266659,-0.2668478 0.266659,-0.6800083 0,-0.9466671 -0.266659,-0.2664698 -0.679997,-0.2664698 -0.946667,0 L 11.52,4.3400128 C 10.46667,3.8066574 9.2666671,3.5000093 8.000002,3.5000093 c -1.2800001,0 -2.4800024,0.3065348 -3.5466678,0.8400035 L 2.4666676,2.3666621 c -0.2666588,-0.2664698 -0.6800008,-0.2664698 -0.9466671,0 -0.2666584,0.2668478 -0.2666584,0.6800083 0,0.9466671 L 3.2666666,5.0600105 C 1.2933351,6.5133482 1.1864407e-7,8.8466785 1.1864407e-7,11.5 H 16 C 16,8.8466785 14.706669,6.5000058 12.706668,5.0466681 Z M 5.142856,8.6428385 H 3.9999991 V 7.5000046 H 5.142856 Z m 6.857145,0 H 10.857144 V 7.5000046 h 1.142857 z"/>
</svg>
